chrome/icons/plugins.svg

<svg height="16" viewBox="-1 14 1009 1011" width="16" xmlns="http://www.w3.org/2000/svg" xmlns:xlink="http://www.w3.org/1999/xlink">
  <path d="M183.5,501.5C177.5,501.5 170.333,499.917 162,496.75C153.667,493.583 145.25,489.75 136.75,485.25C128.25,480.75 120.167,476 112.5,471C104.833,466 98.8333,461.5 94.5,457.5C89.1667,452.833 85,447.333 82,441C79,434.667 77.5,428 77.5,421C77.5,415.667 78.5,410.25 80.5,404.75C82.5,399.25 84.5833,393.75 86.75,388.25C88.9167,382.75 91,377.417 93,372.25C95,367.083 96,362.167 96,357.5C96,354.833 95.0833,352.75 93.25,351.25C91.4167,349.75 89.3333,348.667 87,348L41,340C30.6667,338.333 22.6667,334.75 17,329.25C11.3333,323.75 7.08333,317.167 4.25,309.5C1.41667,301.833 -0.25,293.583 -0.75,284.75C-1.25,275.917 -1.5,267.333 -1.5,259C-1.5,245.333 -0.5,232 1.5,219L2,218.5C3.33333,209.167 6.58333,201.75 11.75,196.25C16.9167,190.75 22.8333,186.583 29.5,183.75C36.1667,180.917 43.25,178.917 50.75,177.75C58.25,176.583 65.1667,175.5 71.5,174.5C77.8333,173.5 83.0833,172.167 87.25,170.5C91.4167,168.833 93.5,166 93.5,162C93.5,157.333 92.4167,152.417 90.25,147.25C88.0833,142.083 85.75,136.667 83.25,131C80.75,125.333 78.5,119.667 76.5,114C74.5,108.333 73.5,102.667 73.5,97C73.5,87.6667 76.6667,78.8334 83,70.5C89.3333,62.1667 97,54.7501 106,48.25C115,41.7501 124.583,36.0001 134.75,31C144.917,26.0001 153.833,22.0001 161.5,19L162,19C164.667,18.3334 167.333,17.6667 170,17C172.667,16.3334 175.5,16.0001 178.5,16C189.167,16.0001 198.167,18.8334 205.5,24.5C212.833,30.1667 219.25,36.5 224.75,43.5C230.25,50.5 235.167,56.8334 239.5,62.5C243.833,68.1667 248.167,71 252.5,71C253.833,71 255.5,70.6667 257.5,70C258.167,69.3334 258.75,68.8334 259.25,68.5C259.75,68.1667 260.333,67.6667 261,67L291,31C301,19.3334 313.333,13.5 328,13.5C333.667,13.5 340.583,15.0834 348.75,18.25C356.917,21.4167 365.167,25.3334 373.5,30C381.833,34.6667 389.75,39.5001 397.25,44.5C404.75,49.5001 410.667,53.8334 415,57.5L415.5,57.5C426.833,67.1667 432.5,79.3334 432.5,94C432.5,99.6667 431.5,105.333 429.5,111C427.5,116.667 425.417,122.25 423.25,127.75C421.083,133.25 419,138.5 417,143.5C415,148.5 414,153.167 414,157.5C414,159.833 415.083,162 417.25,164C419.417,166 421.5,167.167 423.5,167.5L469.5,175C479.5,176.667 487.333,180.333 493,186C498.667,191.667 502.917,198.417 505.75,206.25C508.583,214.083 510.25,222.417 510.75,231.25C511.25,240.083 511.5,248.5 511.5,256.5C511.5,262.167 511.417,267.917 511.25,273.75C511.083,279.583 510.5,285.417 509.5,291.25C508.5,297.083 506.917,302.583 504.75,307.75C502.583,312.917 499.5,317.667 495.5,322C490.167,327.667 483.083,331.583 474.25,333.75C465.417,335.917 456.75,337.75 448.25,339.25C439.75,340.75 432.333,342.333 426,344C419.667,345.667 416.5,348.833 416.5,353.5C416.5,354.833 417.333,358 419,363C420.667,368 422.5,373.25 424.5,378.75C426.5,384.25 428.417,389.333 430.25,394C432.083,398.667 433.167,401.333 433.5,402L433.5,401.5C435.5,407.167 436.5,412.833 436.5,418.5C436.5,425.5 435,432.167 432,438.5C429,444.833 424.833,450.333 419.5,455C414.833,458.667 408.75,463.083 401.25,468.25C393.75,473.417 385.75,478.333 377.25,483C368.75,487.667 360.417,491.583 352.25,494.75C344.083,497.917 337.167,499.5 331.5,499.5C320.833,499.5 311.917,496.667 304.75,491C297.583,485.333 291.25,479 285.75,472C280.25,465 275.333,458.667 271,453C266.667,447.333 262.167,444.5 257.5,444.5C252.833,444.5 248.333,447.5 244,453.5C239.667,459.5 234.833,466 229.5,473C224.167,480 217.833,486.5 210.5,492.5C203.167,498.5 194.167,501.5 183.5,501.5ZM256.5,380.5C266.5,380.5 275.167,381.833 282.5,384.5C289.833,387.167 296.5,390.833 302.5,395.5C308.5,400.167 314.167,405.667 319.5,412C324.833,418.333 330.5,425 336.5,432C342.5,429.333 348.083,426.333 353.25,423C358.417,419.667 363.833,416.167 369.5,412.5C365.833,403.167 362.083,393.667 358.25,384C354.417,374.333 352.5,364.5 352.5,354.5C352.5,340.5 355.75,328 362.25,317C368.75,306 377.833,297 389.5,290C397.833,285 407.167,281.583 417.5,279.75C427.833,277.917 437.667,276.167 447,274.5C447.333,273.167 447.5,271.833 447.5,270.5C447.5,269.167 447.5,267.667 447.5,266L447.5,257.5C447.5,253.833 447.5,250.333 447.5,247C447.5,243.667 447.167,240.167 446.5,236.5L412.5,230.5C394.167,227.167 379.167,218.667 367.5,205C355.833,191.333 350,175.167 350,156.5C350,146.833 351.833,137.25 355.5,127.75C359.167,118.25 362.5,109 365.5,100C360.167,96.3334 354.75,92.9167 349.25,89.75C343.75,86.5834 338.167,83.6667 332.5,81C326.833,88 321.333,94.75 316,101.25C310.667,107.75 305,113.5 299,118.5C293,123.5 286.333,127.5 279,130.5C271.667,133.5 263.167,135 253.5,135C243.167,135 234.417,133.667 227.25,131C220.083,128.333 213.583,124.667 207.75,120C201.917,115.333 196.417,109.833 191.25,103.5C186.083,97.1667 180.333,90.5001 174,83.5C168.333,86.1667 162.667,89.1667 157,92.5C151.333,95.8334 146,99.3334 141,103C144.667,112.333 148.417,121.833 152.25,131.5C156.083,141.167 158,151.167 158,161.5C158,167.833 157.083,174 155.25,180C153.417,186 151,191.833 148,197.5C143,206.167 137.5,213 131.5,218C125.5,223 119,226.833 112,229.5C105,232.167 97.5,234.25 89.5,235.75C81.5,237.25 72.8333,239 63.5,241C63.1667,242.667 63,244.25 63,245.75C63,247.25 63,248.833 63,250.5L63,260C63,263.333 63,266.5 63,269.5C63,272.5 63.1667,275.667 63.5,279L97.5,284.5C106.167,285.833 114.333,288.75 122,293.25C129.667,297.75 136.333,303.333 142,310C147.667,316.667 152.167,324.083 155.5,332.25C158.833,340.417 160.5,348.833 160.5,357.5C160.5,367.5 158.75,377.25 155.25,386.75C151.75,396.25 148.333,405.667 145,415C150,418.667 155.333,422.083 161,425.25C166.667,428.417 172.333,431.333 178,434C183.667,427 189.083,420.333 194.25,414C199.417,407.667 205,402 211,397C217,392 223.583,388 230.75,385C237.917,382 246.5,380.5 256.5,380.5ZM194.5,257.5C194.5,249.167 196.083,241.333 199.25,234C202.417,226.667 206.75,220.333 212.25,215C217.75,209.667 224.167,205.417 231.5,202.25C238.833,199.083 246.667,197.5 255,197.5C263.333,197.5 271.167,199.083 278.5,202.25C285.833,205.417 292.25,209.667 297.75,215C303.25,220.333 307.583,226.667 310.75,234C313.917,241.333 315.5,249.167 315.5,257.5C315.5,265.833 313.917,273.667 310.75,281C307.583,288.333 303.25,294.75 297.75,300.25C292.25,305.75 285.833,310.083 278.5,313.25C271.167,316.417 263.333,318 255,318C246.333,318 238.333,316.417 231,313.25C223.667,310.083 217.333,305.833 212,300.5C206.667,295.167 202.417,288.833 199.25,281.5C196.083,274.167 194.5,266.167 194.5,257.5ZM577,901C571.333,901 565.25,902.25 558.75,904.75C552.25,907.25 545.5,910.083 538.5,913.25C531.5,916.417 524.417,919.25 517.25,921.75C510.083,924.25 503.167,925.5 496.5,925.5C488.833,925.5 481.417,923.833 474.25,920.5C467.083,917.167 461.167,912.5 456.5,906.5C451.833,900.833 446.417,893.417 440.25,884.25C434.083,875.083 428.167,865.417 422.5,855.25C416.833,845.083 412.083,835 408.25,825C404.417,815 402.5,806.333 402.5,799C402.5,790.333 404.25,782.75 407.75,776.25C411.25,769.75 415.667,763.917 421,758.75C426.333,753.583 432.083,748.917 438.25,744.75C444.417,740.583 450.167,736.417 455.5,732.25C460.833,728.083 465.25,723.833 468.75,719.5C472.25,715.167 474,710.167 474,704.5C474,696.167 470.25,688.917 462.75,682.75C455.25,676.583 447,670.167 438,663.5C429,656.833 420.75,649.25 413.25,640.75C405.75,632.25 402,621.667 402,609C402,602 404.083,593.5 408.25,583.5C412.417,573.5 417.333,563.333 423,553C428.667,542.667 434.667,532.833 441,523.5C447.333,514.167 452.833,506.833 457.5,501.5C462.5,495.833 468.5,491.333 475.5,488C482.5,484.667 489.833,483 497.5,483C504.167,483 511,484.333 518,487C525,489.667 532,492.5 539,495.5C546,498.5 552.667,501.333 559,504C565.333,506.667 571.333,508 577,508C583,508 588.167,506.25 592.5,502.75C596.833,499.25 599.5,494.667 600.5,489L611.5,430C613.5,419 617.5,410.5 623.5,404.5C629.5,398.5 636.667,394.083 645,391.25C653.333,388.417 662.25,386.667 671.75,386C681.25,385.333 690.5,385 699.5,385L703.5,385C709.833,385 716.75,385.083 724.25,385.25C731.75,385.417 739.25,386.167 746.75,387.5C754.25,388.833 761.333,390.75 768,393.25C774.667,395.75 780.167,399.167 784.5,403.5C791.5,410.833 796.167,420.417 798.5,432.25C800.833,444.083 802.75,455.583 804.25,466.75C805.75,477.917 808,487.583 811,495.75C814,503.917 820,508 829,508C835.667,508 842.5,506.75 849.5,504.25C856.5,501.75 863.5,498.917 870.5,495.75C877.5,492.583 884.5,489.75 891.5,487.25C898.5,484.75 905.5,483.5 912.5,483.5C920.167,483.5 927.583,485.083 934.75,488.25C941.917,491.417 947.833,496 952.5,502C956.833,507.667 962.167,515.083 968.5,524.25C974.833,533.417 980.75,543.167 986.25,553.5C991.75,563.833 996.5,574 1000.5,584C1004.5,594 1006.5,602.5 1006.5,609.5C1006.5,618.167 1004.75,625.75 1001.25,632.25C997.75,638.75 993.333,644.583 988,649.75C982.667,654.917 976.917,659.667 970.75,664C964.583,668.333 958.833,672.583 953.5,676.75C948.167,680.917 943.75,685.25 940.25,689.75C936.75,694.25 935,699.167 935,704.5C935,712.833 938.75,720.083 946.25,726.25C953.75,732.417 962,738.833 971,745.5C980,752.167 988.25,759.75 995.75,768.25C1003.25,776.75 1007,787.333 1007,800C1007,807 1004.92,815.5 1000.75,825.5C996.583,835.5 991.667,845.667 986,856C980.333,866.333 974.25,876.167 967.75,885.5C961.25,894.833 955.833,902.167 951.5,907.5C941.5,919.5 928.333,925.5 912,925.5C905.333,925.5 898.333,924.25 891,921.75C883.667,919.25 876.5,916.417 869.5,913.25C862.5,910.083 855.75,907.25 849.25,904.75C842.75,902.25 836.833,901 831.5,901C825.167,901 820.25,902.583 816.75,905.75C813.25,908.917 810.667,912.917 809,917.75C807.333,922.583 806.167,927.75 805.5,933.25C804.833,938.75 804.167,943.667 803.5,948L798,978.5C796,989.833 791.75,998.583 785.25,1004.75C778.75,1010.92 771,1015.42 762,1018.25C753,1021.08 743.417,1022.75 733.25,1023.25C723.083,1023.75 713.5,1024 704.5,1024C698.5,1024 691.833,1023.92 684.5,1023.75C677.167,1023.58 669.75,1022.83 662.25,1021.5C654.75,1020.17 647.667,1018.33 641,1016C634.333,1013.67 628.833,1010.17 624.5,1005.5C619.5,1000.5 615.833,994.417 613.5,987.25C611.167,980.083 609.417,972.667 608.25,965C607.083,957.333 606.083,949.667 605.25,942C604.417,934.333 603.083,927.5 601.25,921.5C599.417,915.5 596.667,910.583 593,906.75C589.333,902.917 584,901 577,901ZM831.5,837C844.833,837 857.833,839.583 870.5,844.75C883.167,849.917 895.5,854.833 907.5,859.5C920.833,842.5 931.833,824 940.5,804C931.833,796.667 923.333,789.667 915,783C906.667,776.333 899.25,769.25 892.75,761.75C886.25,754.25 881,745.917 877,736.75C873,727.583 871,716.833 871,704.5C871,692.167 872.917,681.417 876.75,672.25C880.583,663.083 885.75,654.833 892.25,647.5C898.75,640.167 906.167,633.25 914.5,626.75C922.833,620.25 931.5,613.333 940.5,606C936.167,596 931.417,586.333 926.25,577C921.083,567.667 915.167,558.667 908.5,550C896.5,554.333 884,559.083 871,564.25C858,569.417 844.833,572 831.5,572C820.833,572 810.75,570.25 801.25,566.75C791.75,563.25 783.167,558.333 775.5,552C767.833,545.667 761.417,538.167 756.25,529.5C751.083,520.833 747.5,511.167 745.5,500.5L737,451C732.333,450.333 727.833,449.833 723.5,449.5C719.167,449.167 714.667,449 710,449C703.667,449 697.333,449.083 691,449.25C684.667,449.417 678.5,450 672.5,451L663.5,500.5C661.5,511.167 657.917,520.833 652.75,529.5C647.583,538.167 641.167,545.667 633.5,552C625.833,558.333 617.167,563.25 607.5,566.75C597.833,570.25 587.667,572 577,572C564,572 551,569.333 538,564C525,558.667 512.667,553.833 501,549.5C488,566.5 477.167,585 468.5,605C477.167,612.333 485.667,619.333 494,626C502.333,632.667 509.75,639.75 516.25,647.25C522.75,654.75 528,663.083 532,672.25C536,681.417 538,692.167 538,704.5C538,717.167 536.083,728 532.25,737C528.417,746 523.25,754.167 516.75,761.5C510.25,768.833 502.833,775.75 494.5,782.25C486.167,788.75 477.5,795.667 468.5,803C472.833,813 477.667,822.667 483,832C488.333,841.333 494.167,850.333 500.5,859C512.167,854.667 524.75,849.833 538.25,844.5C551.75,839.167 565,836.5 578,836.5C588.333,836.5 598.333,838.333 608,842C617.667,845.667 626.333,850.667 634,857C641.667,863.333 648.083,870.917 653.25,879.75C658.417,888.583 661.833,898.167 663.5,908.5L672,958C677.333,958.667 682.667,959.167 688,959.5C693.333,959.833 698.667,960 704,960C709.667,960 715.083,959.833 720.25,959.5C725.417,959.167 730.833,958.667 736.5,958C738.5,948 740.167,938.083 741.5,928.25C742.833,918.417 744.917,909.083 747.75,900.25C750.583,891.417 754.5,883 759.5,875C764.5,867 771.667,859.667 781,853C788.333,847.667 796.333,843.667 805,841C813.667,838.333 822.5,837 831.5,837ZM594,704.5C594,689.5 596.917,675.25 602.75,661.75C608.583,648.25 616.5,636.5 626.5,626.5C636.5,616.5 648.167,608.583 661.5,602.75C674.833,596.917 689,594 704,594C719.333,594 733.75,596.833 747.25,602.5C760.75,608.167 772.5,616 782.5,626C792.5,636 800.417,647.75 806.25,661.25C812.083,674.75 815,689.167 815,704.5C815,719.5 812.083,733.75 806.25,747.25C800.417,760.75 792.5,772.5 782.5,782.5C772.5,792.5 760.75,800.417 747.25,806.25C733.75,812.083 719.5,815 704.5,815C689.5,815 675.25,812.083 661.75,806.25C648.25,800.417 636.5,792.5 626.5,782.5C616.5,772.5 608.583,760.75 602.75,747.25C596.917,733.75 594,719.5 594,704.5ZM704.5,750.5C717.5,750.5 728.5,746.083 737.5,737.25C746.5,728.417 751,717.5 751,704.5C751,698.167 749.75,692.167 747.25,686.5C744.75,680.833 741.417,675.833 737.25,671.5C733.083,667.167 728.167,663.833 722.5,661.5C716.833,659.167 710.833,658 704.5,658C698.167,658 692.167,659.25 686.5,661.75C680.833,664.25 675.917,667.583 671.75,671.75C667.583,675.917 664.25,680.833 661.75,686.5C659.25,692.167 658,698.167 658,704.5C658,711.167 659.25,717.25 661.75,722.75C664.25,728.25 667.583,733.083 671.75,737.25C675.917,741.417 680.833,744.667 686.5,747C692.167,749.333 698.167,750.5 704.5,750.5Z" fill="context-fill" fill-opacity="context-fill-opacity">
  </path>
</svg>

<svg xmlns="http://www.w3.org/2000/svg" width="16" height="16" viewBox="-1 14 1009 1011"><path fill="context-fill" fill-opacity="context-fill-opacity" d="M183.5 501.5q-9 0-21.5-4.75t-25.25-11.5T112.5 471t-18-13.5q-8-7-12.5-16.5t-4.5-20q0-8 3-16.25t6.25-16.5 6.25-16 3-14.75q0-4-2.75-6.25A17.2 17.2 0 0 0 87 348l-46-8q-15.5-2.5-24-10.75T4.25 309.5t-5-24.75T-1.5 259q0-20.5 3-40l.5-.5q2-14 9.75-22.25t17.75-12.5 21.25-6 20.75-3.25 15.75-4 6.25-8.5q0-7-3.25-14.75a963 963 0 0 0-7-16.25 240 240 0 0 1-6.75-17q-3-8.5-3-17 0-14 9.5-26.5t23-22.25T134.75 31t26.75-12h.5l8-2q4-1 8.5-1 16 0 27 8.5t19.25 19 14.75 19 13 8.5q2 0 5-1 1-1 1.75-1.5T261 67l30-36q15-17.5 37-17.5 8.5 0 20.75 4.75T373.5 30t23.75 14.5 17.75 13h.5q17 14.5 17 36.5 0 8.5-3 17t-6.25 16.75T417 143.5t-3 14q0 3.5 3.25 6.5t6.25 3.5l46 7.5q15 2.5 23.5 11t12.75 20.25 5 25 .75 25.25q0 8.5-.25 17.25a124.6 124.6 0 0 1-1.75 17.5q-1.5 8.75-4.75 16.5T495.5 322q-8 8.5-21.25 11.75t-26 5.5T426 344t-9.5 9.5q0 2 2.5 9.5t5.5 15.75 5.75 15.25 3.25 8v-.5q3 8.5 3 17 0 10.5-4.5 20T419.5 455q-7 5.5-18.25 13.25t-24 14.75-25 11.75-20.75 4.75q-16 0-26.75-8.5t-19-19T271 453t-13.5-8.5-13.5 9-14.5 19.5-19 19.5-27 9m73-121q15 0 26 4t20 11 17 16.5 17 20q9-4 16.75-9t16.25-10.5a9849 9849 0 0 0-11.25-28.5q-5.75-14.5-5.75-29.5 0-21 9.75-37.5t27.25-27q12.5-7.5 28-10.25t29.5-5.25q.5-2 .5-4V247q0-5-1-10.5l-34-6q-27.5-5-45-25.5T350 156.5q0-14.5 5.5-28.75t10-27.75a241 241 0 0 0-16.25-10.25A229 229 0 0 0 332.5 81Q324 91.5 316 101.25t-17 17.25-20 12-25.5 4.5q-15.5 0-26.25-4t-19.5-11-16.5-16.5-17.25-20a209 209 0 0 0-17 9q-8.5 5-16 10.5a9849 9849 0 0 0 11.25 28.5q5.75 14.5 5.75 30 0 9.5-2.75 18.5a99.4 99.4 0 0 1-7.25 17.5q-7.5 13-16.5 20.5T112 229.5t-22.5 6.25-26 5.25q-.5 2.5-.5 4.75v23.75q0 4.5.5 9.5l34 5.5q13 2 24.5 8.75T142 310t13.5 22.25 5 25.25q0 15-5.25 29.25T145 415q7.5 5.5 16 10.25a274 274 0 0 0 17 8.75q8.5-10.5 16.25-20T211 397t19.75-12 25.75-4.5m-62-123q0-12.5 4.75-23.5t13-19 19.25-12.75 23.5-4.75 23.5 4.75T297.75 215t13 19 4.75 23.5-4.75 23.5-13 19.25-19.25 13T255 318q-13 0-24-4.75t-19-12.75-12.75-19-4.75-24M577 901q-8.5 0-18.25 3.75t-20.25 8.5-21.25 8.5-20.75 3.75q-11.5 0-22.25-5t-17.75-14q-7-8.5-16.25-22.25t-17.75-29T408.25 825t-5.75-26q0-13 5.25-22.75a71.3 71.3 0 0 1 13.25-17.5 126.6 126.6 0 0 1 17.25-14q9.25-6.25 17.25-12.5t13.25-12.75 5.25-15q0-12.5-11.25-21.75T438 663.5t-24.75-22.75T402 609q0-10.5 6.25-25.5T423 553t18-29.5 16.5-22q7.5-8.5 18-13.5t22-5q10 0 20.5 4t21 8.5 20 8.5 18 4q9 0 15.5-5.25t8-13.75l11-59q3-16.5 12-25.5t21.5-13.25 26.75-5.25 27.75-1h4q9.5 0 20.75.25t22.5 2.25 21.25 5.75 16.5 10.25q10.5 11 14 28.75t5.75 34.5 6.75 29T829 508q10 0 20.5-3.75t21-8.5 21-8.5 21-3.75q11.5 0 22.25 4.75T952.5 502q6.5 8.5 16 22.25t17.75 29.25 14.25 30.5 6 25.5q0 13-5.25 22.75a71.3 71.3 0 0 1-13.25 17.5A142.3 142.3 0 0 1 970.75 664q-9.25 6.5-17.25 12.75t-13.25 13T935 704.5q0 12.5 11.25 21.75T971 745.5t24.75 22.75T1007 800c0 7-2.08 15.5-6.25 25.5q-6.25 15-14.75 30.5t-18.25 29.5-16.25 22q-15 18-39.5 18-10 0-21-3.75t-21.5-8.5-20.25-8.5T831.5 901q-9.5 0-14.75 4.75t-7.75 12-3.5 15.5-2 14.75l-5.5 30.5q-3 17-12.75 26.25-9.75 9.255-23.25 13.5c-9 2.83-18.583 4.5-28.75 5q-15.25.75-28.75.75c-6 0-12.667-.08-20-.25q-11-.255-22.25-2.25c-7.5-1.33-14.583-3.17-21.25-5.5q-10-3.495-16.5-10.5-7.5-7.5-11-18.25T608.25 965a542 542 0 0 1-3-23q-1.25-11.5-4-20.5T593 906.75 577 901m254.5-64q20 0 39 7.75t37 14.75q20-25.5 33-55.5a1205 1205 0 0 0-25.5-21q-12.5-10-22.25-21.25t-15.75-25-6-32.25 5.75-32.25 15.5-24.75 22.25-20.75 26-20.75a334 334 0 0 0-14.25-29q-7.75-14-17.75-27-18 6.5-37.5 14.25T831.5 572q-16 0-30.25-5.25T775.5 552t-19.25-22.5-10.75-29L737 451a208 208 0 0 0-13.5-1.5q-6.5-.5-13.5-.5-9.5 0-19 .25T672.5 451l-9 49.5q-3 16-10.75 29T633.5 552t-26 14.75T577 572q-19.5 0-39-8t-37-14.5Q481.5 575 468.5 605a1205 1205 0 0 0 25.5 21q12.5 10 22.25 21.25t15.75 25 6 32.25q0 19-5.75 32.5t-15.5 24.5-22.25 20.75-26 20.75q6.5 15 14.5 29a288 288 0 0 0 17.5 27q17.5-6.5 37.75-14.5t39.75-8a83.9 83.9 0 0 1 30 5.5q14.5 5.5 26 15t19.25 22.75 10.25 28.75L672 958a259 259 0 0 0 16 1.5q8 .5 16 .5 8.5 0 16.25-.5a310 310 0 0 0 16.25-1.5q3-15 5-29.75t6.25-28T759.5 875t21.5-22a81 81 0 0 1 24-12q13-4 26.5-4M594 704.5q0-22.5 8.75-42.75t23.75-35.25 35-23.75T704 594q23 0 43.25 8.5T782.5 626t23.75 35.25T815 704.5q0 22.5-8.75 42.75T782.5 782.5t-35.25 23.75T704.5 815t-42.75-8.75-35.25-23.75-23.75-35.25T594 704.5m110.5 46q19.5 0 33-13.25T751 704.5q0-9.5-3.75-18t-10-15-14.75-10-18-3.5-18 3.75-14.75 10-10 14.75-3.75 18q0 10 3.75 18.25t10 14.5T686.5 747t18 3.5"/></svg>
